X: 21513
T: Kid On The Mountain, The
R: slip jig
M: 9/8
K: Eminor
|:~E2 E FEF G2 F|~E2 B BcA BGD|~E2 E FEF G2 B|BAG FAG FED:|
|:BGB AFA G2 D|GAB dge dBA|BGB ABA G2 B|BAG FAG FED:|
|:gfg eBe e2 f|gfg efg afd|gfg eBe g2 a|bag fag fed:|
|:e~B2 e2f g2 f|e~B2 efg afd|e~B2 e2f g2a|bag fag fed:|
|:edB dBA G2D|GAB dge dBA|edB dBA G2A|BAG FAG FED:|

